images/logo.svg

<svg viewBox="0 0 130 36" xmlns="http://www.w3.org/2000/svg"><defs><linearGradient id="a"><stop style="stop-color:#ea413b"/></linearGradient><linearGradient id="b"><stop style="stop-color:#eaeaea"/></linearGradient></defs><path style="fill:url(#a)" d="M0 0h130v36H0z"/><path d="M5.268 12.265v2.91h2.15v2.54h-2.15v3.39c0 .473.093.797.28.97.18.173.427.26.74.26.14 0 .327-.02.56-.06.233-.04.417-.09.55-.15v2c-.273.12-.657.217-1.15.29-.487.073-.903.11-1.25.11-1.053 0-1.863-.193-2.43-.58-.567-.38-.85-1.03-.85-1.95v-4.28h-1v-2.54h1.15l1.23-2.91h2.17zm6.976 3.99c.574-.84 1.324-1.26 2.25-1.26h.51c.487 0 .937.12 1.35.36.407.24.73.567.97.98.24.413.36.863.36 1.35v6.64h-3.54v-5.73c0-.3-.093-.553-.28-.76a.87.87 0 0 0-.67-.31.853.853 0 0 0-.67.31c-.186.207-.28.46-.28.76v5.73h-3.54v-12.89h3.54v4.82zm12.097-1.26c.92 0 1.71.177 2.37.53.66.353 1.166.84 1.52 1.46.353.62.53 1.33.53 2.13v1.11h-5.96v.86c0 .407.126.717.38.93.26.213.593.32 1 .32.413 0 .73-.127.95-.38.226-.26.34-.617.34-1.07h3.27c0 .68-.177 1.297-.53 1.85-.354.547-.867.977-1.54 1.29-.674.32-1.47.48-2.39.48h-.26c-.96 0-1.817-.177-2.57-.53a4.162 4.162 0 0 1-1.79-1.54c-.44-.673-.66-1.477-.66-2.41v-.55c0-.933.206-1.737.62-2.41a4.003 4.003 0 0 1 1.73-1.54c.74-.353 1.586-.53 2.54-.53h.45zm-.31 2.17c-.347 0-.637.123-.87.37-.24.24-.36.533-.36.88v.25h2.47v-.25c0-.347-.12-.64-.36-.88a1.18 1.18 0 0 0-.88-.37zm18.537 7.16h-2.83l-.32-1.06c-.653.827-1.423 1.24-2.31 1.24-.74 0-1.403-.173-1.99-.52-.593-.347-1.06-.87-1.4-1.57-.34-.693-.51-1.547-.51-2.56v-.2c0-1.013.153-1.87.46-2.57.3-.7.71-1.223 1.23-1.57s1.11-.52 1.77-.52c1.12 0 1.907.377 2.36 1.13v-4.69h3.54v12.89zm-4.65-7.09c-.313 0-.577.123-.79.37-.213.247-.32.54-.32.88v2.6c0 .347.107.643.32.89.213.24.477.36.79.36.307 0 .57-.12.79-.36.213-.247.32-.543.32-.89v-2.6c0-.34-.107-.633-.32-.88a1.022 1.022 0 0 0-.79-.37zm11.362-2.24c.92 0 1.71.177 2.37.53a3.73 3.73 0 0 1 1.52 1.46c.354.62.53 1.33.53 2.13v1.11h-5.96v.86c0 .407.127.717.38.93.26.213.594.32 1 .32.414 0 .73-.127.95-.38.227-.26.34-.617.34-1.07h3.27a3.36 3.36 0 0 1-.53 1.85c-.353.547-.866.977-1.54 1.29-.673.32-1.47.48-2.39.48h-.26c-.96 0-1.816-.177-2.57-.53a4.168 4.168 0 0 1-1.79-1.54c-.44-.673-.66-1.477-.66-2.41v-.55c0-.933.207-1.737.62-2.41a4.008 4.008 0 0 1 1.73-1.54c.74-.353 1.587-.53 2.54-.53h.45zm-.31 2.17a1.15 1.15 0 0 0-.87.37c-.24.24-.36.533-.36.88v.25h2.47v-.25c0-.347-.12-.64-.36-.88a1.179 1.179 0 0 0-.88-.37zm10.113-5.87c.346 0 .763.037 1.25.11.493.067.876.16 1.15.28v1.97a3 3 0 0 0-.56-.12c-.24-.04-.424-.06-.55-.06-.314 0-.564.063-.75.19-.18.127-.27.41-.27.85v.66h2.15v2.54h-2.15v6.61h-3.55v-6.61h-1.14v-2.54h1.14v-1.18c0-.927.293-1.61.88-2.05.586-.433 1.386-.65 2.4-.65zm5.82.14v2.56h-3.52v-2.56h3.52zm0 3.76v9.13h-3.52v-9.13h3.52zm7.431-.2c1.387 0 2.447.27 3.18.81.733.54 1.1 1.237 1.1 2.09v3.78c0 .227.053.393.16.5.113.107.247.16.4.16.227 0 .433-.053.62-.16v1.92c-.38.273-.98.41-1.8.41-.767 0-1.37-.13-1.81-.39-.44-.253-.713-.607-.82-1.06a5.11 5.11 0 0 1-1.27 1.06c-.46.26-1.023.39-1.69.39-.953 0-1.73-.187-2.33-.56-.593-.367-.89-1.093-.89-2.18 0-.82.233-1.457.7-1.91.467-.447 1.13-.757 1.99-.93.867-.173 1.97-.26 3.31-.26v-.52c0-.333-.113-.593-.34-.78-.22-.193-.497-.29-.83-.29-.273 0-.533.08-.78.24-.24.16-.36.36-.36.6v.07h-3.4a.92.92 0 0 1-.02-.25c0-.513.177-.973.53-1.38.347-.413.847-.743 1.5-.99s1.407-.37 2.26-.37h.59zm.85 5.3c-.793 0-1.373.107-1.74.32-.373.207-.56.493-.56.86 0 .573.36.86 1.08.86.333 0 .62-.117.86-.35.24-.233.36-.533.36-.9v-.79zm11.934-5.3a2.645 2.645 0 0 1 2.32 1.34c.24.413.36.863.36 1.35v6.64h-3.54v-5.73c0-.3-.094-.553-.28-.76a.872.872 0 0 0-.67-.31.852.852 0 0 0-.67.31c-.187.207-.28.46-.28.76v5.73h-3.54v-9.15h2.66l.36 1.33c.653-1.007 1.576-1.51 2.77-1.51h.51zm8.476-2.73v2.91h2.15v2.54h-2.15v3.39c0 .473.094.797.28.97.18.173.427.26.74.26.14 0 .327-.02.56-.06.234-.04.417-.09.55-.15v2c-.273.12-.656.217-1.15.29-.486.073-.903.11-1.25.11-1.053 0-1.863-.193-2.43-.58-.566-.38-.85-1.03-.85-1.95v-4.28h-1v-2.54h1.15l1.23-2.91h2.17zm12.322 2.73c.793 0 1.406.22 1.84.66.433.433.65 1.033.65 1.8v.3l-.03.68-.04.45h-2.9v-.43a.96.96 0 0 0-.22-.64c-.154-.173-.33-.26-.53-.26a.71.71 0 0 0-.55.26.955.955 0 0 0-.22.64v5.87h-3.45v-9.15h2.64l.4 1.33c.073-.147.21-.34.41-.58.2-.233.473-.447.82-.64.346-.193.74-.29 1.18-.29zm8.522 0c.92 0 1.71.177 2.37.53a3.73 3.73 0 0 1 1.52 1.46c.354.62.53 1.33.53 2.13v1.11h-5.96v.86c0 .407.127.717.38.93.26.213.594.32 1 .32.414 0 .73-.127.95-.38.227-.26.34-.617.34-1.07h3.27a3.36 3.36 0 0 1-.53 1.85c-.353.547-.866.977-1.54 1.29-.673.32-1.47.48-2.39.48h-.26c-.96 0-1.816-.177-2.57-.53a4.168 4.168 0 0 1-1.79-1.54c-.44-.673-.66-1.477-.66-2.41v-.55c0-.933.207-1.737.62-2.41a4.008 4.008 0 0 1 1.73-1.54c.74-.353 1.587-.53 2.54-.53h.45zm-.31 2.17a1.15 1.15 0 0 0-.87.37c-.24.24-.36.533-.36.88v.25h2.47v-.25c0-.347-.12-.64-.36-.88a1.179 1.179 0 0 0-.88-.37zm15.103 7.16h-2.83l-.32-1.06c-.654.827-1.424 1.24-2.31 1.24-.74 0-1.404-.173-1.99-.52-.594-.347-1.06-.87-1.4-1.57-.34-.693-.51-1.547-.51-2.56v-.2c0-1.013.153-1.87.46-2.57.3-.7.71-1.223 1.23-1.57s1.11-.52 1.77-.52c1.12 0 1.906.377 2.36 1.13v-4.69h3.54v12.89zm-4.65-7.09c-.314 0-.577.123-.79.37-.214.247-.32.54-.32.88v2.6c0 .347.106.643.32.89.213.24.476.36.79.36.306 0 .57-.12.79-.36.213-.247.32-.543.32-.89v-2.6c0-.34-.107-.633-.32-.88a1.023 1.023 0 0 0-.79-.37z" style="fill:url(#b);white-space:pre"/></svg>

<?xml version="1.0" encoding="utf-8"?>
<svg viewBox="0 0 130 36" xmlns="http://www.w3.org/2000/svg">
  <defs>
    <linearGradient id="color-0">
      <stop style="stop-color: rgb(234, 65, 59);"/>
    </linearGradient>
    <linearGradient id="color-4">
      <stop style="stop-color: #eaeaea;"/>
    </linearGradient>
  </defs>
  <rect width="130" height="36" style="fill: url(#color-0);"/>
  <path d="M 5.268 12.265 L 5.268 15.175 L 7.418 15.175 L 7.418 17.715 L 5.268 17.715 L 5.268 21.105 C 5.268 21.578 5.361 21.902 5.548 22.075 C 5.728 22.248 5.975 22.335 6.288 22.335 C 6.428 22.335 6.615 22.315 6.848 22.275 C 7.081 22.235 7.265 22.185 7.398 22.125 L 7.398 24.125 C 7.125 24.245 6.741 24.342 6.248 24.415 C 5.761 24.488 5.345 24.525 4.998 24.525 C 3.945 24.525 3.135 24.332 2.568 23.945 C 2.001 23.565 1.718 22.915 1.718 21.995 L 1.718 17.715 L 0.718 17.715 L 0.718 15.175 L 1.868 15.175 L 3.098 12.265 L 5.268 12.265 ZM 12.244 16.255 C 12.818 15.415 13.568 14.995 14.494 14.995 L 15.004 14.995 C 15.491 14.995 15.941 15.115 16.354 15.355 C 16.761 15.595 17.084 15.922 17.324 16.335 C 17.564 16.748 17.684 17.198 17.684 17.685 L 17.684 24.325 L 14.144 24.325 L 14.144 18.595 C 14.144 18.295 14.051 18.042 13.864 17.835 C 13.678 17.628 13.454 17.525 13.194 17.525 C 12.928 17.525 12.704 17.628 12.524 17.835 C 12.338 18.042 12.244 18.295 12.244 18.595 L 12.244 24.325 L 8.704 24.325 L 8.704 11.435 L 12.244 11.435 L 12.244 16.255 ZM 24.341 14.995 C 25.261 14.995 26.051 15.172 26.711 15.525 C 27.371 15.878 27.877 16.365 28.231 16.985 C 28.584 17.605 28.761 18.315 28.761 19.115 L 28.761 20.225 L 22.801 20.225 L 22.801 21.085 C 22.801 21.492 22.927 21.802 23.181 22.015 C 23.441 22.228 23.774 22.335 24.181 22.335 C 24.594 22.335 24.911 22.208 25.131 21.955 C 25.357 21.695 25.471 21.338 25.471 20.885 L 28.741 20.885 C 28.741 21.565 28.564 22.182 28.211 22.735 C 27.857 23.282 27.344 23.712 26.671 24.025 C 25.997 24.345 25.201 24.505 24.281 24.505 L 24.021 24.505 C 23.061 24.505 22.204 24.328 21.451 23.975 C 20.691 23.622 20.094 23.108 19.661 22.435 C 19.221 21.762 19.001 20.958 19.001 20.025 L 19.001 19.475 C 19.001 18.542 19.207 17.738 19.621 17.065 C 20.034 16.392 20.611 15.878 21.351 15.525 C 22.091 15.172 22.937 14.995 23.891 14.995 L 24.341 14.995 Z M 24.031 17.165 C 23.684 17.165 23.394 17.288 23.161 17.535 C 22.921 17.775 22.801 18.068 22.801 18.415 L 22.801 18.665 L 25.271 18.665 L 25.271 18.415 C 25.271 18.068 25.151 17.775 24.911 17.535 C 24.671 17.288 24.377 17.165 24.031 17.165 ZM 42.568 24.325 L 39.738 24.325 L 39.418 23.265 C 38.765 24.092 37.995 24.505 37.108 24.505 C 36.368 24.505 35.705 24.332 35.118 23.985 C 34.525 23.638 34.058 23.115 33.718 22.415 C 33.378 21.722 33.208 20.868 33.208 19.855 L 33.208 19.655 C 33.208 18.642 33.361 17.785 33.668 17.085 C 33.968 16.385 34.378 15.862 34.898 15.515 C 35.418 15.168 36.008 14.995 36.668 14.995 C 37.788 14.995 38.575 15.372 39.028 16.125 L 39.028 11.435 L 42.568 11.435 L 42.568 24.325 Z M 37.918 17.235 C 37.605 17.235 37.341 17.358 37.128 17.605 C 36.915 17.852 36.808 18.145 36.808 18.485 L 36.808 21.085 C 36.808 21.432 36.915 21.728 37.128 21.975 C 37.341 22.215 37.605 22.335 37.918 22.335 C 38.225 22.335 38.488 22.215 38.708 21.975 C 38.921 21.728 39.028 21.432 39.028 21.085 L 39.028 18.485 C 39.028 18.145 38.921 17.852 38.708 17.605 C 38.488 17.358 38.225 17.235 37.918 17.235 ZM 49.28 14.995 C 50.2 14.995 50.99 15.172 51.65 15.525 C 52.31 15.878 52.817 16.365 53.17 16.985 C 53.524 17.605 53.7 18.315 53.7 19.115 L 53.7 20.225 L 47.74 20.225 L 47.74 21.085 C 47.74 21.492 47.867 21.802 48.12 22.015 C 48.38 22.228 48.714 22.335 49.12 22.335 C 49.534 22.335 49.85 22.208 50.07 21.955 C 50.297 21.695 50.41 21.338 50.41 20.885 L 53.68 20.885 C 53.68 21.565 53.504 22.182 53.15 22.735 C 52.797 23.282 52.284 23.712 51.61 24.025 C 50.937 24.345 50.14 24.505 49.22 24.505 L 48.96 24.505 C 48 24.505 47.144 24.328 46.39 23.975 C 45.63 23.622 45.034 23.108 44.6 22.435 C 44.16 21.762 43.94 20.958 43.94 20.025 L 43.94 19.475 C 43.94 18.542 44.147 17.738 44.56 17.065 C 44.974 16.392 45.55 15.878 46.29 15.525 C 47.03 15.172 47.877 14.995 48.83 14.995 L 49.28 14.995 Z M 48.97 17.165 C 48.624 17.165 48.334 17.288 48.1 17.535 C 47.86 17.775 47.74 18.068 47.74 18.415 L 47.74 18.665 L 50.21 18.665 L 50.21 18.415 C 50.21 18.068 50.09 17.775 49.85 17.535 C 49.61 17.288 49.317 17.165 48.97 17.165 ZM 59.083 11.295 C 59.429 11.295 59.846 11.332 60.333 11.405 C 60.826 11.472 61.209 11.565 61.483 11.685 L 61.483 13.655 C 61.349 13.608 61.163 13.568 60.923 13.535 C 60.683 13.495 60.499 13.475 60.373 13.475 C 60.059 13.475 59.809 13.538 59.623 13.665 C 59.443 13.792 59.353 14.075 59.353 14.515 L 59.353 15.175 L 61.503 15.175 L 61.503 17.715 L 59.353 17.715 L 59.353 24.325 L 55.803 24.325 L 55.803 17.715 L 54.663 17.715 L 54.663 15.175 L 55.803 15.175 L 55.803 13.995 C 55.803 13.068 56.096 12.385 56.683 11.945 C 57.269 11.512 58.069 11.295 59.083 11.295 ZM 64.903 11.435 L 64.903 13.995 L 61.383 13.995 L 61.383 11.435 L 64.903 11.435 Z M 64.903 15.195 L 64.903 24.325 L 61.383 24.325 L 61.383 15.195 L 64.903 15.195 ZM 72.334 14.995 C 73.721 14.995 74.781 15.265 75.514 15.805 C 76.247 16.345 76.614 17.042 76.614 17.895 L 76.614 21.675 C 76.614 21.902 76.667 22.068 76.774 22.175 C 76.887 22.282 77.021 22.335 77.174 22.335 C 77.401 22.335 77.607 22.282 77.794 22.175 L 77.794 24.095 C 77.414 24.368 76.814 24.505 75.994 24.505 C 75.227 24.505 74.624 24.375 74.184 24.115 C 73.744 23.862 73.471 23.508 73.364 23.055 C 72.977 23.495 72.554 23.848 72.094 24.115 C 71.634 24.375 71.071 24.505 70.404 24.505 C 69.451 24.505 68.674 24.318 68.074 23.945 C 67.481 23.578 67.184 22.852 67.184 21.765 C 67.184 20.945 67.417 20.308 67.884 19.855 C 68.351 19.408 69.014 19.098 69.874 18.925 C 70.741 18.752 71.844 18.665 73.184 18.665 L 73.184 18.145 C 73.184 17.812 73.071 17.552 72.844 17.365 C 72.624 17.172 72.347 17.075 72.014 17.075 C 71.741 17.075 71.481 17.155 71.234 17.315 C 70.994 17.475 70.874 17.675 70.874 17.915 L 70.874 17.985 L 67.474 17.985 C 67.461 17.952 67.454 17.868 67.454 17.735 C 67.454 17.222 67.631 16.762 67.984 16.355 C 68.331 15.942 68.831 15.612 69.484 15.365 C 70.137 15.118 70.891 14.995 71.744 14.995 L 72.334 14.995 Z M 73.184 20.295 C 72.391 20.295 71.811 20.402 71.444 20.615 C 71.071 20.822 70.884 21.108 70.884 21.475 C 70.884 22.048 71.244 22.335 71.964 22.335 C 72.297 22.335 72.584 22.218 72.824 21.985 C 73.064 21.752 73.184 21.452 73.184 21.085 L 73.184 20.295 ZM 85.118 14.995 C 85.604 14.995 86.054 15.115 86.468 15.355 C 86.874 15.595 87.198 15.922 87.438 16.335 C 87.678 16.748 87.798 17.198 87.798 17.685 L 87.798 24.325 L 84.258 24.325 L 84.258 18.595 C 84.258 18.295 84.164 18.042 83.978 17.835 C 83.791 17.628 83.568 17.525 83.308 17.525 C 83.041 17.525 82.818 17.628 82.638 17.835 C 82.451 18.042 82.358 18.295 82.358 18.595 L 82.358 24.325 L 78.818 24.325 L 78.818 15.175 L 81.478 15.175 L 81.838 16.505 C 82.491 15.498 83.414 14.995 84.608 14.995 L 85.118 14.995 ZM 93.594 12.265 L 93.594 15.175 L 95.744 15.175 L 95.744 17.715 L 93.594 17.715 L 93.594 21.105 C 93.594 21.578 93.688 21.902 93.874 22.075 C 94.054 22.248 94.301 22.335 94.614 22.335 C 94.754 22.335 94.941 22.315 95.174 22.275 C 95.408 22.235 95.591 22.185 95.724 22.125 L 95.724 24.125 C 95.451 24.245 95.068 24.342 94.574 24.415 C 94.088 24.488 93.671 24.525 93.324 24.525 C 92.271 24.525 91.461 24.332 90.894 23.945 C 90.328 23.565 90.044 22.915 90.044 21.995 L 90.044 17.715 L 89.044 17.715 L 89.044 15.175 L 90.194 15.175 L 91.424 12.265 L 93.594 12.265 ZM 105.916 14.995 C 106.709 14.995 107.322 15.215 107.756 15.655 C 108.189 16.088 108.406 16.688 108.406 17.455 L 108.406 17.755 L 108.376 18.435 L 108.336 18.885 L 105.436 18.885 L 105.436 18.455 C 105.436 18.202 105.362 17.988 105.216 17.815 C 105.062 17.642 104.886 17.555 104.686 17.555 C 104.472 17.555 104.289 17.642 104.136 17.815 C 103.989 17.988 103.916 18.202 103.916 18.455 L 103.916 24.325 L 100.466 24.325 L 100.466 15.175 L 103.106 15.175 L 103.506 16.505 C 103.579 16.358 103.716 16.165 103.916 15.925 C 104.116 15.692 104.389 15.478 104.736 15.285 C 105.082 15.092 105.476 14.995 105.916 14.995 ZM 114.438 14.995 C 115.358 14.995 116.148 15.172 116.808 15.525 C 117.468 15.878 117.975 16.365 118.328 16.985 C 118.682 17.605 118.858 18.315 118.858 19.115 L 118.858 20.225 L 112.898 20.225 L 112.898 21.085 C 112.898 21.492 113.025 21.802 113.278 22.015 C 113.538 22.228 113.872 22.335 114.278 22.335 C 114.692 22.335 115.008 22.208 115.228 21.955 C 115.455 21.695 115.568 21.338 115.568 20.885 L 118.838 20.885 C 118.838 21.565 118.662 22.182 118.308 22.735 C 117.955 23.282 117.442 23.712 116.768 24.025 C 116.095 24.345 115.298 24.505 114.378 24.505 L 114.118 24.505 C 113.158 24.505 112.302 24.328 111.548 23.975 C 110.788 23.622 110.192 23.108 109.758 22.435 C 109.318 21.762 109.098 20.958 109.098 20.025 L 109.098 19.475 C 109.098 18.542 109.305 17.738 109.718 17.065 C 110.132 16.392 110.708 15.878 111.448 15.525 C 112.188 15.172 113.035 14.995 113.988 14.995 L 114.438 14.995 Z M 114.128 17.165 C 113.782 17.165 113.492 17.288 113.258 17.535 C 113.018 17.775 112.898 18.068 112.898 18.415 L 112.898 18.665 L 115.368 18.665 L 115.368 18.415 C 115.368 18.068 115.248 17.775 115.008 17.535 C 114.768 17.288 114.475 17.165 114.128 17.165 ZM 129.231 24.325 L 126.401 24.325 L 126.081 23.265 C 125.427 24.092 124.657 24.505 123.771 24.505 C 123.031 24.505 122.367 24.332 121.781 23.985 C 121.187 23.638 120.721 23.115 120.381 22.415 C 120.041 21.722 119.871 20.868 119.871 19.855 L 119.871 19.655 C 119.871 18.642 120.024 17.785 120.331 17.085 C 120.631 16.385 121.041 15.862 121.561 15.515 C 122.081 15.168 122.671 14.995 123.331 14.995 C 124.451 14.995 125.237 15.372 125.691 16.125 L 125.691 11.435 L 129.231 11.435 L 129.231 24.325 Z M 124.581 17.235 C 124.267 17.235 124.004 17.358 123.791 17.605 C 123.577 17.852 123.471 18.145 123.471 18.485 L 123.471 21.085 C 123.471 21.432 123.577 21.728 123.791 21.975 C 124.004 22.215 124.267 22.335 124.581 22.335 C 124.887 22.335 125.151 22.215 125.371 21.975 C 125.584 21.728 125.691 21.432 125.691 21.085 L 125.691 18.485 C 125.691 18.145 125.584 17.852 125.371 17.605 C 125.151 17.358 124.887 17.235 124.581 17.235 Z" transform="matrix(1, 0, 0, 1, 0, 0)" style="fill: url(#color-4); white-space: pre;"/>
</svg>
